usr/share/icons/biglinux-icons-material-dark/22/actions/run-build-clean.svg

<svg xmlns="http://www.w3.org/2000/svg" viewBox="0 0 22 22">
  <defs id="defs3051">
    <style type="text/css" id="current-color-scheme">
      .ColorScheme-Text {
        color:#dedede;
      }
      </style>
  </defs>
 <path 
     style="fill:currentColor;fill-opacity:1;stroke:none" 
     d="M 11 3 C 10.324795 3.003785 9.6527857 3.0930363 9 3.265625 L 9 4.2988281 L 9 4.3105469 A 7 7 0 0 0 7.6835938 4.8554688 L 7.6757812 4.8476562 L 6.9433594 4.1152344 C 5.7764037 4.8032844 4.8032842 5.7764039 4.1152344 6.9433594 L 4.6367188 7.4648438 L 4.8554688 7.6835938 A 7 7 0 0 0 4.3085938 9 L 4.2949219 9 L 3.2597656 9 C 3.089154 9.6530391 3.001872 10.325045 3 11 C 3.00378 11.675205 3.093036 12.347214 3.265625 13 L 4.2988281 13 L 4.3105469 13 A 7 7 0 0 0 4.8554688 14.316406 L 4.6367188 14.535156 L 4.1152344 15.056641 C 4.8032842 16.223596 5.7764037 17.196716 6.9433594 17.884766 L 7.4648438 17.363281 L 7.6835938 17.144531 A 7 7 0 0 0 9 17.691406 L 9 18 L 9 18.740234 C 9.6530391 18.910846 10.325044 18.998128 11 19 C 11.334998 18.998115 11.668533 18.97338 12 18.929688 L 12 17.923828 C 11.669555 17.972638 11.334906 17.998872 11 18 C 10.664546 17.999498 10.331064 17.974129 10 17.925781 L 10 17.921875 L 10 17 L 10 16.910156 A 6 6 0 0 1 7.5273438 15.886719 L 7.4648438 15.949219 L 6.8144531 16.599609 L 6.8105469 16.603516 C 6.2742384 16.201454 5.7991129 15.72484 5.3984375 15.1875 L 5.4003906 15.185547 L 6.0507812 14.535156 L 6.1152344 14.470703 A 6 6 0 0 1 5.0859375 12 L 5 12 L 4.0800781 12 L 4.0761719 12 C 4.0273622 11.669555 4.0011276 11.334906 4 11 C 4.0005022 10.664546 4.0258707 10.331064 4.0742188 10 L 4.078125 10 L 5 10 L 5.0898438 10 A 6 6 0 0 1 6.1132812 7.5273438 L 6.0507812 7.4648438 L 5.4003906 6.8144531 L 5.3964844 6.8105469 C 5.7985462 6.2742384 6.2751604 5.7991129 6.8125 5.3984375 L 6.8144531 5.4003906 L 7.4648438 6.0507812 L 7.5292969 6.1152344 A 6 6 0 0 1 10 5.0859375 L 10 5 L 10 4.0800781 L 10 4.0761719 C 10.330445 4.0273622 10.665094 4.0011276 11 4 C 11.335454 4.0005001 11.668936 4.0258701 12 4.0742188 L 12 4.078125 L 12 5 L 12 5.0898438 A 6 6 0 0 1 14.472656 6.1132812 L 14.535156 6.0507812 L 15.185547 5.4003906 L 15.189453 5.3964844 C 15.725762 5.7985462 16.200888 6.2751604 16.601562 6.8125 L 16.599609 6.8144531 L 15.949219 7.4648438 L 15.884766 7.5292969 A 6 6 0 0 1 16.914062 10 L 17 10 L 17.919922 10 L 17.923828 10 C 17.972638 10.330445 17.998873 10.665094 18 11 C 17.999505 11.335454 17.974131 11.668936 17.925781 12 L 17.921875 12 L 17 12 L 16.910156 12 A 6 6 0 0 1 16.179688 14 L 17.314453 14 A 7 7 0 0 0 17.691406 13 L 18 13 L 18.740234 13 C 18.910846 12.346961 18.998128 11.674956 19 11 C 18.996215 10.324795 18.906964 9.6527857 18.734375 9 L 18 9 L 17.689453 9 A 7 7 0 0 0 17.144531 7.6835938 L 17.152344 7.6757812 L 17.884766 6.9433594 C 17.196716 5.7764039 16.223597 4.8032844 15.056641 4.1152344 L 14.328125 4.84375 L 14.316406 4.8554688 A 7 7 0 0 0 13 4.3085938 L 13 4.2949219 L 13 3.2597656 C 12.346961 3.0891541 11.674956 3.0018721 11 3 z M 9 8 L 9 14 L 14 11 L 9 8 z M 15 15 L 13 17 L 15 19 L 19 19 L 19 15 L 15 15 z M 15.599609 16 L 18 16 L 18 18 L 15.599609 18 L 14.599609 17 L 15.599609 16 z "
	 class="ColorScheme-Text"
     />
</svg>

<svg xmlns="http://www.w3.org/2000/svg" viewBox="0 0 22 22">
<defs id="defs3051">
<style id="current-color-scheme" type="text/css">
.ColorScheme-Text{color:#dedede}
</style>
</defs>
<path d="M11 3a8 8 0 0 0-2 .266V4.31a7 7 0 0 0-1.316.544l-.008-.007-.733-.733a8 8 0 0 0-2.828 2.828l.522.522.218.219A7 7 0 0 0 4.31 9H3.26A8 8 0 0 0 3 11a8 8 0 0 0 .266 2H4.31a7 7 0 0 0 .544 1.316l-.218.22-.522.52a8 8 0 0 0 2.828 2.829l.522-.522.219-.218A7 7 0 0 0 9 17.69v1.049a8 8 0 0 0 2 .26 8 8 0 0 0 1-.07v-1.006A7 7 0 0 1 11 18q-.503-.001-1-.074V16.91a6 6 0 0 1-2.473-1.023l-.062.062-.65.65-.004.005a7 7 0 0 1-1.413-1.416l.002-.002.65-.65.065-.065A6 6 0 0 1 5.085 12H4.077A7 7 0 0 1 4 11q.001-.503.074-1H5.09a6 6 0 0 1 1.023-2.473l-.062-.062-.65-.65-.005-.004a7 7 0 0 1 1.417-1.413l.001.002.65.65.065.065A6 6 0 0 1 10 5.085V4.077A7 7 0 0 1 11 4q.503.001 1 .074V5.09a6 6 0 0 1 2.473 1.023l.062-.062.65-.65.004-.005a7 7 0 0 1 1.413 1.417l-.002.001-.65.65-.065.065A6 6 0 0 1 16.915 10h1.009q.074.496.076 1-.001.503-.074 1H16.91a6 6 0 0 1-.73 2h1.134a7 7 0 0 0 .377-1h1.049a8 8 0 0 0 .26-2 8 8 0 0 0-.266-2H17.69a7 7 0 0 0-.545-1.316l.007-.008.733-.733a8 8 0 0 0-2.828-2.828l-.729.729-.012.011A7 7 0 0 0 13 4.31V3.26A8 8 0 0 0 11 3M9 8v6l5-3zm6 7-2 2 2 2h4v-4zm.6 1H18v2h-2.4l-1-1z" class="ColorScheme-Text" style="fill:currentColor;fill-opacity:1;stroke:none"/>
</svg>
